assets/collections/sg1000/logo_mono.svg

<svg enable-background="new 0 0 3839.5 430.6" version="1.1" viewBox="0 0 3839.5 430.6" xml:space="preserve" xmlns="http://www.w3.org/2000/svg">
<path d="m66.599609 0c-36.799963 0-66.599609 29.799646-66.599609 66.599609v123.800781c0 36.79996 29.799646 66.59961 66.599609 66.59961h401.900391v95.5h-468.5v78.09961h498.69922c36.79996 0 66.60156-29.79965 66.60156-66.59961v-118.5c0-36.69996-29.9016-66.59961-66.60156-66.59961h-401.898439v-100.800781h468.499999v-78.099609h-498.701171zm619.300781 0c-36.79996 0-66.59961 29.799646-66.59961 66.599609v297.400391c0 36.79996 29.79965 66.59961 66.59961 66.59961h498.69921v-251.69922h-303.49999v78.09961h206.70119v95.5h-371.70119v-274.400391h468.49999v-78.099609h-498.69921zm829.50001 0v78.099609h101.2988v274.400391h-129.0996v78.09961h343.3008v-78.09961h-117.5v-274.400391-78.099609h-198zm436.1992 0c-36.8 0-66.5996 29.799646-66.5996 66.599609v297.400391c0 36.79996 29.7996 66.59961 66.5996 66.59961h482.3008c36.8 0 66.5996-29.79965 66.5996-66.59961v-297.400391c0-36.799963-29.7996-66.599609-66.5996-66.599609h-482.3008zm669.5 0c-36.8 0-66.5996 29.799646-66.5996 66.599609v297.400391c0 36.79996 29.7996 66.59961 66.5996 66.59961h482.3008c36.8 0 66.5996-29.79965 66.5996-66.59961v-297.400391c0-36.799963-29.7996-66.599609-66.5996-66.599609h-482.3008zm669.5996 0c-36.7999 0-66.5996 29.799646-66.5996 66.599609v297.400391c0 36.79996 29.7997 66.59961 66.5996 66.59961h482.3008c36.8 0 66.5996-29.79965 66.5996-66.59961v-297.400391c0-36.799963-29.7996-66.599609-66.5996-66.599609h-482.3008zm-1308.8984 78.099609h421.8984v274.400391h-421.8984v-274.400391zm669.5 0h421.8984v274.400391h-421.8984v-274.400391zm669.5996 0h421.9004v274.400391h-421.9004v-274.400391zm-2088.7012 100.800781v78.09961h179.1016v-78.09961h-179.1016z"/>
</svg>

<?xml version="1.0" encoding="utf-8"?>
<!-- Generator: Adobe Illustrator 25.1.0, SVG Export Plug-In . SVG Version: 6.00 Build 0)  -->
<svg version="1.1" id="Layer_1" xmlns="http://www.w3.org/2000/svg" xmlns:xlink="http://www.w3.org/1999/xlink" x="0px" y="0px"
	 viewBox="0 0 3839.5 430.6" style="enable-background:new 0 0 3839.5 430.6;" xml:space="preserve">
<style type="text/css">
	.st0{fill:#3852A1;}
	.st1{fill:#FF0000;}
	.st2{fill:#FFFFFF;}
</style>
<g>
	<rect x="1232.2" y="178.9" width="179.1" height="78.1"/>
	<polygon points="1713.4,352.5 1713.4,78.1 1713.4,0 1515.4,0 1515.4,78.1 1616.7,78.1 1616.7,352.5 1487.6,352.5 1487.6,430.6 
		1830.9,430.6 1830.9,352.5 	"/>
	<path d="M716.1,352.5V78.1h468.5V0H685.9c-36.8,0-66.6,29.8-66.6,66.6V364c0,36.8,29.8,66.6,66.6,66.6h498.7V178.9H881.1V257h206.7
		v95.5H716.1z"/>
	<path d="M1885,66.6V364c0,36.8,29.8,66.6,66.6,66.6h482.3c36.8,0,66.6-29.8,66.6-66.6V66.6c0-36.8-29.8-66.6-66.6-66.6h-482.3
		C1914.8,0,1885,29.8,1885,66.6z M1981.8,352.5V78.1h421.9v274.4H1981.8z"/>
	<path d="M2554.5,66.6V364c0,36.8,29.8,66.6,66.6,66.6h482.3c36.8,0,66.6-29.8,66.6-66.6V66.6c0-36.8-29.8-66.6-66.6-66.6h-482.3
		C2584.3,0,2554.5,29.8,2554.5,66.6z M2651.3,352.5V78.1h421.9v274.4H2651.3z"/>
	<path d="M3224.1,66.6V364c0,36.8,29.8,66.6,66.6,66.6h482.3c36.8,0,66.6-29.8,66.6-66.6V66.6c0-36.8-29.8-66.6-66.6-66.6h-482.3
		C3253.9,0,3224.1,29.8,3224.1,66.6z M3320.9,352.5V78.1h421.9v274.4H3320.9z"/>
	<path d="M498.7,178.9H96.8V78.1h468.5V0H66.6C29.8,0,0,29.8,0,66.6v123.8C0,227.2,29.8,257,66.6,257h401.9v95.5H0v78.1h498.7
		c36.8,0,66.6-29.8,66.6-66.6V245.5C565.3,208.8,535.4,178.9,498.7,178.9z"/>
</g>
</svg>
